X:1
T:Dr. MacPhail's Reel "CYMRU"
M:C
L:1/8
Q:80
C:Andrew Bain
R:Reel
K:HP
a |\
c2eA       A2fe       | f/a3/e3/f/ a3/e/f/a3/ |\
[1 c2eA       A2fe       | f/a3/e3/f/ a3/A/c3/B/ :|\
[2 c2e3/f/    A3/c/f3/e/ | f/a3/e3/f/ a3/A/c3/B/ |]
|:\
c/e3/e3/a/ c/e3/a3/f/ | e3/c/c3/e/ f/a3/f3/e/ |\
[1 c/e3/e3/a/ c/e3/a3/f/ | f3/e/e3/f/ a3/A/c3/B/ :|\
[2 c2e3/f/A3/ c/f3/e/    | f/a3/e3/f/ a3/A/c3/B/ |]
|:\
A3/e/e3/c/ e3/f/c/e3/ | B3/f/f3/e/ f/a3/f3/e/ |\
[1 A3/e/e3/c/ e3/f/c/e3/ | f/a3/e3/f/ a3/A/c3/B/ :|\
[2 A3/e/e3/c/ e3/f/c/e3/ | f/a3/e3/f/ a3/A/c3/B/ |]
|:\
c2e/a3/    d/f3/c/e3/ | d2f/a3/    f/a3/f3/e/ |\
[1 c2e/a3/    d/f3/c/e3/ | f/a3/e3/f/ a3/A/c3/B/ :|\
[2 c2e3/f/    A3/c/f3/e/ | f/a3/e3/f/ a3/A/c3/B/ |]
